icons/folder-ansible.svg

<svg style="clip-rule:evenodd;fill-rule:evenodd;stroke-linejoin:round;stroke-miterlimit:1.4142" version="1.1" viewBox="0 0 24 24" xml:space="preserve" xmlns="http://www.w3.org/2000/svg"><path d="m10 4h-6c-1.11 0-2 .89-2 2v12c0 1.097.903 2 2 2h16c1.097 0 2-.903 2-2v-10c0-1.11-.9-2-2-2h-8l-2-2z" style="fill-rule:nonzero;fill:rgb(97,97,97)"/><g transform="matrix(.93781 0 0 .93781 6.3843 4.1861)"><g transform="matrix(.061679 0 0 .061679 2.5631 2.568)"><path d="m259.79 152.92c0 58.585-48.208 106.79-106.79 106.79s-106.79-48.208-106.79-106.79 48.208-106.79 106.79-106.79h.006c58.581 0 106.79 48.206 106.79 106.79v.006" style="fill-rule:nonzero;fill:rgb(132,137,146)"/></g><g transform="matrix(.061679 0 0 .061679 2.5631 2.568)"><path d="m154.8 112.89l27.639 68.209-41.746-32.881 14.107-35.328zm49.096 83.922l-42.51-102.3c-1-2.752-3.658-4.574-6.586-4.513-2.973-.068-5.686 1.742-6.765 4.513l-46.657 112.21h15.961l18.468-46.268 55.117 44.53c2.219 1.794 3.816 2.605 5.897 2.605.06.001.119.002.179.002 4.182 0 7.624-3.442 7.624-7.625v-.006c-.072-1.082-.318-2.145-.728-3.149" style="fill-rule:nonzero;fill:white"/></g></g></svg>

<?xml version="1.0" encoding="UTF-8" standalone="no"?>
<!DOCTYPE svg PUBLIC "-//W3C//DTD SVG 1.1//EN" "http://www.w3.org/Graphics/SVG/1.1/DTD/svg11.dtd">
<svg width="100%" height="100%" viewBox="0 0 24 24" version="1.1" xmlns="http://www.w3.org/2000/svg" xmlns:xlink="http://www.w3.org/1999/xlink" xml:space="preserve" xmlns:serif="http://www.serif.com/" style="fill-rule:evenodd;clip-rule:evenodd;stroke-linejoin:round;stroke-miterlimit:1.41421;">
    <path d="M10,4L4,4C2.89,4 2,4.89 2,6L2,18C2,19.097 2.903,20 4,20L20,20C21.097,20 22,19.097 22,18L22,8C22,6.89 21.1,6 20,6L12,6L10,4Z" style="fill:rgb(97,97,97);fill-rule:nonzero;"/>
    <g transform="matrix(0.937813,0,0,0.937813,6.38433,4.18613)">
        <g transform="matrix(0.0616791,0,0,0.0616791,2.5631,2.56804)">
            <path d="M259.793,152.92C259.793,152.92 259.793,152.92 259.793,152.92C259.793,211.505 211.585,259.713 153,259.713C94.415,259.713 46.207,211.505 46.207,152.92C46.207,94.335 94.415,46.127 153,46.127C153.002,46.127 153.004,46.127 153.006,46.127C211.587,46.127 259.793,94.333 259.793,152.914C259.793,152.916 259.793,152.918 259.793,152.92" style="fill:rgb(132,137,146);fill-rule:nonzero;"/>
        </g>
        <g transform="matrix(0.0616791,0,0,0.0616791,2.5631,2.56804)">
            <path d="M154.799,112.893L182.438,181.102L140.692,148.221L154.799,112.893ZM203.895,196.815L161.385,94.514C160.385,91.762 157.727,89.94 154.799,90.001C151.826,89.933 149.113,91.743 148.034,94.514L101.377,206.726L117.338,206.726L135.806,160.458L190.923,204.988C193.142,206.782 194.739,207.593 196.82,207.593C196.88,207.594 196.939,207.595 196.999,207.595C201.181,207.595 204.623,204.153 204.623,199.97C204.623,199.968 204.623,199.966 204.623,199.964C204.551,198.882 204.305,197.819 203.895,196.815" style="fill:white;fill-rule:nonzero;"/>
        </g>
    </g>
</svg>
